packages/katcn/src/icons/svg/folders.svg

<svg width="24" height="25" viewBox="0 0 24 25" fill="none" xmlns="http://www.w3.org/2000/svg">
<path fill-rule="evenodd" clip-rule="evenodd" d="M5 5.49357C5 3.70677 6.38247 2.28809 8.17752 2.28809H11.3018C12.3106 2.28809 13.3293 2.67175 14.0962 3.44852L15.128 4.49357H19.8225C21.6175 4.49357 23 5.91225 23 7.69904V15.0826C23 16.8694 21.6175 18.2881 19.8225 18.2881H8.17752C6.38247 18.2881 5 16.8694 5 15.0826V5.49357ZM8.17752 4.28809C7.51102 4.28809 7 4.78721 7 5.49357V15.0826C7 15.789 7.51102 16.2881 8.17752 16.2881H19.8225C20.489 16.2881 21 15.789 21 15.0826V7.69904C21 6.99268 20.489 6.49357 19.8225 6.49357H14.7101C14.4426 6.49357 14.1863 6.38645 13.9985 6.19615L12.673 4.85368C12.3038 4.47977 11.8078 4.28809 11.3018 4.28809H8.17752Z" fill="black"/>
<path fill-rule="evenodd" clip-rule="evenodd" d="M2 6.28809C2.55228 6.28809 3 6.7358 3 7.28809V17.0133C3 18.8389 4.44883 20.2881 6.15584 20.2881H18C18.5523 20.2881 19 20.7358 19 21.2881C19 21.8404 18.5523 22.2881 18 22.2881H6.15584C3.29143 22.2881 1 19.8899 1 17.0133V7.28809C1 6.7358 1.44772 6.28809 2 6.28809Z" fill="black"/>
</svg>

<svg xmlns="http://www.w3.org/2000/svg" fill="none" viewBox="0 0 24 25"><path fill="#000" fill-rule="evenodd" d="M5 5.494c0-1.787 1.382-3.206 3.178-3.206h3.124a3.92 3.92 0 0 1 2.794 1.16l1.032 1.046h4.695C21.617 4.494 23 5.912 23 7.699v7.384c0 1.786-1.383 3.205-3.177 3.205H8.178C6.382 18.288 5 16.87 5 15.083zm3.178-1.206C7.51 4.288 7 4.788 7 5.494v9.589c0 .706.511 1.205 1.178 1.205h11.645c.666 0 1.177-.499 1.177-1.205V7.699c0-.706-.511-1.205-1.177-1.205H14.71a1 1 0 0 1-.712-.298l-1.325-1.342a1.92 1.92 0 0 0-1.371-.566z" clip-rule="evenodd"/><path fill="#000" fill-rule="evenodd" d="M2 6.288a1 1 0 0 1 1 1v9.725c0 1.826 1.449 3.275 3.156 3.275H18a1 1 0 1 1 0 2H6.156C3.29 22.288 1 19.89 1 17.013V7.288a1 1 0 0 1 1-1" clip-rule="evenodd"/></svg>
